X: 33278
T: Purple Sunrise, The
R: hornpipe
M: 4/4
K: Dminor
D>FA>d B>GB>d|^c>Ac>f d2 (3efg|a>gf>a g>fe>g|f>e (3def e>^c AG/E/|
D>FA>d B>GB>d|^c>Ac>f d2 (3efg|a>ba>g f>gf>e|(3def e>^c d2:|
a>fd>a g>ec>e|f>e (3def e>^c Ag/e/|d>ed>c B>cB>G|GBAG E3 G/E/|
D>FA>d B>GB>d|^cAcf d3 (3efg|a>ba>g f>gf>e|(3def e^c d2:|

